src/assets/svg/email.svg

<svg width="25" height="24" fill="none" xmlns="http://www.w3.org/2000/svg"><path d="M20.5 4h-16c-1.1 0-1.99.9-1.99 2L2.5 18c0 1.1.9 2 2 2h16c1.1 0 2-.9 2-2V6c0-1.1-.9-2-2-2Zm0 4-8 5-8-5V6l8 5 8-5v2Z" fill="#E0E0E0"/></svg>

<svg width="24" height="24" viewBox="0 0 25 24" fill="current" xmlns="http://www.w3.org/2000/svg">
  <g clip-path="url(#clip0_5_3524)">
    <path
      d="M20.5 4H4.5C3.4 4 2.51 4.9 2.51 6L2.5 18C2.5 19.1 3.4 20 4.5 20H20.5C21.6 20 22.5 19.1 22.5 18V6C22.5 4.9 21.6 4 20.5 4ZM20.5 8L12.5 13L4.5 8V6L12.5 11L20.5 6V8Z"
      fill="current" />
  </g>
  <defs>
    <clipPath id="clip0_5_3524">
      <rect width="24" height="24" fill="current" transform="translate(0.5)" />
    </clipPath>
  </defs>
</svg>
